public/images/icon-settings.svg

<svg preserveAspectRatio="none" width="100%" height="100%" overflow="visible" style="display: block;" viewBox="0 0 24 24" fill="none" xmlns="http://www.w3.org/2000/svg">
<path id="Vector" opacity="0.9" d="M4.3121 19.8826C4.5013 17.0165 6.8861 14.75 9.8 14.75H14.2C17.11 14.75 19.4926 17.0105 19.6873 19.871M12 23C18.0753 23 23 18.0753 23 12C23 5.9247 18.0753 1 12 1C5.9247 1 1 5.9247 1 12C1 18.0753 5.9247 23 12 23ZM12 11.45C12.7293 11.45 13.4288 11.1603 13.9445 10.6445C14.4603 10.1288 14.75 9.42934 14.75 8.7C14.75 7.97065 14.4603 7.27118 13.9445 6.75546C13.4288 6.23973 12.7293 5.95 12 5.95C11.2707 5.95 10.5712 6.23973 10.0555 6.75546C9.53973 7.27118 9.25 7.97065 9.25 8.7C9.25 9.42934 9.53973 10.1288 10.0555 10.6445C10.5712 11.1603 11.2707 11.45 12 11.45ZM8.94234 21.1961C9.67169 21.1961 10.3712 20.9064 10.8869 20.3906C11.4026 19.8749 11.6923 19.1754 11.6923 18.4461C11.6923 17.7167 11.4026 17.0173 10.8869 16.5015C10.3712 15.9858 9.67169 15.6961 8.94234 15.6961C8.213 15.6961 7.51352 15.9858 6.9978 16.5015C6.48207 17.0173 6.19234 17.7167 6.19234 18.4461C6.19234 19.1754 6.48207 19.8749 6.9978 20.3906C7.51352 20.9064 8.213 21.1961 8.94234 21.1961ZM12.1103 21.1961C12.8397 21.1961 13.5392 20.9064 14.0549 20.3906C14.5706 19.8749 14.8603 19.1754 14.8603 18.4461C14.8603 17.7167 14.5706 17.0173 14.0549 16.5015C13.5392 15.9858 12.8397 15.6961 12.1103 15.6961C11.381 15.6961 10.6815 15.9858 10.1658 16.5015C9.65007 17.0173 9.36034 17.7167 9.36034 18.4461C9.36034 19.1754 9.65007 19.8749 10.1658 20.3906C10.6815 20.9064 11.381 21.1961 12.1103 21.1961ZM15.2783 21.1961C16.0077 21.1961 16.7072 20.9064 17.2229 20.3906C17.7386 19.8749 18.0283 19.1754 18.0283 18.4461C18.0283 17.7167 17.7386 17.0173 17.2229 16.5015C16.7072 15.9858 16.0077 15.6961 15.2783 15.6961C14.549 15.6961 13.8495 15.9858 13.3338 16.5015C12.8181 17.0173 12.5283 17.7167 12.5283 18.4461C12.5283 19.1754 12.8181 19.8749 13.3338 20.3906C13.8495 20.9064 14.549 21.1961 15.2783 21.1961Z" stroke="var(--stroke-0, #424242)" stroke-width="2" stroke-linecap="round" stroke-linejoin="round"/>
</svg>

<svg xmlns="http://www.w3.org/2000/svg" fill="none" overflow="visible" preserveAspectRatio="none" style="display:block" viewBox="0 0 24 24"><path stroke="var(--stroke-0, #424242)" stroke-linecap="round" stroke-linejoin="round" stroke-width="2" d="M4.312 19.883A5.5 5.5 0 0 1 9.8 14.75h4.4a5.5 5.5 0 0 1 5.487 5.121M12 23c6.075 0 11-4.925 11-11S18.075 1 12 1 1 5.925 1 12s4.925 11 11 11m0-11.55a2.75 2.75 0 1 0 0-5.5 2.75 2.75 0 0 0 0 5.5m-3.058 9.746a2.75 2.75 0 1 0 0-5.5 2.75 2.75 0 0 0 0 5.5m3.168 0a2.75 2.75 0 1 0 0-5.5 2.75 2.75 0 0 0 0 5.5m3.168 0a2.75 2.75 0 1 0 0-5.5 2.75 2.75 0 0 0 0 5.5" opacity=".9"/></svg>
